svgs/sharp-solid/compress.svg

<svg xmlns="http://www.w3.org/2000/svg" viewBox="0 0 448 512"><!--! Font Awesome Pro 6.6.0 by @fontawesome - https://fontawesome.com License - https://fontawesome.com/license (Commercial License) Copyright 2024 Fonticons, Inc. --><path d="M160 64l0-32L96 32l0 32 0 64-64 0L0 128l0 64 32 0 96 0 32 0 0-32 0-96zM32 320L0 320l0 64 32 0 64 0 0 64 0 32 64 0 0-32 0-96 0-32-32 0-96 0zM352 64l0-32-64 0 0 32 0 96 0 32 32 0 96 0 32 0 0-64-32 0-64 0 0-64zM320 320l-32 0 0 32 0 96 0 32 64 0 0-32 0-64 64 0 32 0 0-64-32 0-96 0z"/></svg>

<svg xmlns="http://www.w3.org/2000/svg" viewBox="0 0 448 512"><!--! Font Awesome Pro 6.4.2 by @fontawesome - https://fontawesome.com License - https://fontawesome.com/license (Commercial License) Copyright 2023 Fonticons, Inc. --><path d="M160 64V32H96V64v64H32 0v64H32h96 32V160 64zM32 320H0v64H32 96v64 32h64V448 352 320H128 32zM352 64V32H288V64v96 32h32 96 32V128H416 352V64zM320 320H288v32 96 32h64V448 384h64 32V320H416 320z"/></svg>
